X:1
T:Dewdrops on the Corn
T:Australian Waters
R:jig
Z:Bill Reeder & Roger Landes
M:6/8
L:1/8
K:D
A|d2D FED|=c3 ed^c|d=cA GEA|~D3 efe|d2D FED|=c3 ed^c|d=cA GEA|~D3 D2:||
|: dB/c/d efg|fed =cAG|dB/c/d efg|fed def|gbg afa|e^cA ABc|d^cA GEA|DD/D/D D2 A:||

